X:995
T:Judith
C:Joe Buchanan's Scottish Tome - Page 580.0
I:580 0
Z:Carl Allison
R:Waltz
L:1/4
M:3/4
K:D
"D"F2 E | "Em"G2 B, | "A7"C F>E | "D"D3 | "E"E2 ^G | "G"B2 d | c3/2 "E7"((3B/A/G/) | "A"A3 |
"Bm"d>B d | "F#"f2 e | "D7"d A _B | "G"B2 F | "Em"G>F G | "D"A A,>B, | "A7"C F E | "D"D3 |
"Bm"B>F F | d>B B | "Em"c/e/ "F#"d c | "Bm"B3 | "D"A>d d | "Bm"f>d d | "Em"e/g/ f e | "F#"f3 | 
"Bm"b>f f | "Em"g>e e | "Bm"f>d d | "F#"c2F | "Em"G>F G | "D"A A,>B, | "A7"C F E | "D"D2 :|

